icon-themes/sifr_svg/cmd/fr/lc_bold.svg

<svg viewBox="0 0 24 24" xmlns="http://www.w3.org/2000/svg"><path d="m12 2c-3.8659932 0-7 3.134007-7 7s3.1340068 7 7 7c1.075338 0 2.089621-.250335 3-.683594v.683594a3 3 0 0 1 -3 3h-4v4h4c3.865993 0 7-3.134007 7-7v-7c0-3.865993-3.134007-7-7-7zm0 4a3 3 0 0 1 3 3 3 3 0 0 1 -3 3 3 3 0 0 1 -3-3 3 3 0 0 1 3-3z" fill="#555753"/></svg>

<svg xmlns="http://www.w3.org/2000/svg" viewBox="0 0 24 24">
  <path
     style="fill:#555753"
     d="M 12 2 C 8.1340068 2 5 5.134007 5 9 C 5 12.865993 8.1340068 16 12 16 C 13.075338 16 14.089621 15.749665 15 15.316406 L 15 16 A 3 3 0 0 1 12 19 L 8 19 L 8 23 L 12 23 C 15.865993 23 19 19.865993 19 16 L 19 9 C 19 5.134007 15.865993 2 12 2 z M 12 6 A 3 3 0 0 1 15 9 A 3 3 0 0 1 12 12 A 3 3 0 0 1 9 9 A 3 3 0 0 1 12 6 z "
     />
</svg>
